static/assets/images/exchanges/okx.svg

<svg width="260" height="256" viewBox="0 0 260 256" fill="none" xmlns="http://www.w3.org/2000/svg">
<path d="M6.58872 0.0366473C3.39416 0.0366473 0.787109 2.63804 0.787109 5.82568V80.2038C0.787109 83.4281 3.39416 86.0295 6.58872 86.0295H81.1286C84.3231 86.0295 86.9302 83.4281 86.9302 80.2038V5.82568C86.9302 2.63804 84.3231 0.0366473 81.1286 0.0366473H6.58872Z" fill="white"/>
<path d="M81.1286 256C84.3231 256 86.9302 253.399 86.9302 250.211V175.833C86.9302 172.609 84.3231 170.007 81.1286 170.007H6.58872C3.39416 170.007 0.787109 172.609 0.787109 175.833V250.211C0.787109 253.399 3.39416 256 6.58872 256H81.1286Z" fill="white"/>
<path d="M92.6584 170.996H167.198C170.429 170.996 173.037 168.358 173.037 165.171V90.7926C173.037 87.5684 170.393 84.967 167.198 84.967H92.6584C89.4271 84.967 86.82 87.605 86.82 90.7926V165.171C86.82 168.395 89.4638 170.996 92.6584 170.996Z" fill="white"/>
<path d="M253.341 256C256.573 256 259.18 253.399 259.18 250.211V175.833C259.18 172.609 256.536 170.007 253.341 170.007H178.801C175.607 170.007 173 172.609 173 175.833V250.211C173 253.399 175.607 256 178.801 256H253.341Z" fill="white"/>
<path d="M253.341 85.9928C256.573 85.9928 259.18 83.3914 259.18 80.1672V5.78904C259.18 2.60141 256.536 0 253.341 0H178.801C175.607 0 173 2.60141 173 5.78904V80.1672C173 83.3914 175.607 85.9928 178.801 85.9928H253.341Z" fill="white"/>
</svg>

<svg xmlns="http://www.w3.org/2000/svg" fill="none" viewBox="0 0 260 256"><path fill="#fff" d="M6.589.037C3.394.037.787 2.638.787 5.826v74.378c0 3.224 2.607 5.826 5.802 5.826h74.54c3.194 0 5.801-2.602 5.801-5.826V5.826c0-3.188-2.607-5.79-5.801-5.79zM81.129 256c3.194 0 5.801-2.601 5.801-5.789v-74.378c0-3.224-2.607-5.826-5.801-5.826H6.589c-3.195 0-5.802 2.602-5.802 5.826v74.378c0 3.188 2.607 5.789 5.802 5.789zm11.529-85.004h74.54c3.231 0 5.839-2.638 5.839-5.825V90.793c0-3.225-2.644-5.826-5.839-5.826h-74.54c-3.23 0-5.838 2.638-5.838 5.826v74.378c0 3.224 2.644 5.825 5.838 5.825M253.341 256c3.232 0 5.839-2.601 5.839-5.789v-74.378c0-3.224-2.644-5.826-5.839-5.826h-74.54c-3.194 0-5.801 2.602-5.801 5.826v74.378c0 3.188 2.607 5.789 5.801 5.789zm0-170.007a5.823 5.823 0 0 0 5.839-5.826V5.79c0-3.188-2.644-5.789-5.839-5.789h-74.54C175.607 0 173 2.601 173 5.789v74.378c0 3.224 2.607 5.826 5.801 5.826z"/></svg>
